build/img/icon_product_add_.svg

<svg width="28" height="14" viewBox="0 0 28 14" fill="none" xmlns="http://www.w3.org/2000/svg">
<path fill-rule="evenodd" clip-rule="evenodd" d="M0 1C0 1.55228 0.447715 2 1 2H17C17.5523 2 18 1.55228 18 1C18 0.447715 17.5523 0 17 0H1C0.447716 0 0 0.447715 0 1ZM17 8C17.5523 8 18 7.55228 18 7C18 6.44772 17.5523 6 17 6H1C0.447716 6 0 6.44772 0 7C0 7.55228 0.447715 8 1 8H17ZM17 14C17.5523 14 18 13.5523 18 13C18 12.4477 17.5523 12 17 12H1C0.447716 12 0 12.4477 0 13C0 13.5523 0.447715 14 1 14H17ZM28 7C28 7.55228 27.5523 8 27 8H25V10C25 10.5523 24.5523 11 24 11C23.4477 11 23 10.5523 23 10V8H21C20.4477 8 20 7.55228 20 7C20 6.44772 20.4477 6 21 6H23V4C23 3.44772 23.4477 3 24 3C24.5523 3 25 3.44772 25 4V6H27C27.5523 6 28 6.44772 28 7Z" fill="#9B8869"/>
</svg>

<svg width="28" height="14" fill="none" xmlns="http://www.w3.org/2000/svg"><path fill-rule="evenodd" clip-rule="evenodd" d="M0 1a1 1 0 001 1h16a1 1 0 100-2H1a1 1 0 00-1 1zm17 7a1 1 0 100-2H1a1 1 0 000 2h16zm0 6a1 1 0 100-2H1a1 1 0 100 2h16zm11-7a1 1 0 01-1 1h-2v2a1 1 0 11-2 0V8h-2a1 1 0 110-2h2V4a1 1 0 112 0v2h2a1 1 0 011 1z" fill="#9B8869"/></svg>
